X:1
T:Title
%%score 1 2 3 4
L:1/8
M:4/2
K:C
V:1 treble nm="Part_1"
V:2 treble nm="Part_2"
V:3 treble nm="Part_3"
V:4 treble-8 nm="Part_4"
V:1
 d4 B4 z4 d4 | B2 GABc d2 G4 z4 | d2 B2 c2 A2 B2 G2 ABcA | d4 c4 B2 B2 A4- | A2 G4 ^F2 G4 D4 | %5
 G8 z8 | z2 d2 B2 G2 dcBA G4 | E2 e2 c2 A2 edcB A4 | D4 d4 d2 d2 e4 | d4 B4 c4 B4 | d8 B8 | %11
 z4 B4 c4 A4 | B2 A2 G4 z4 A4 | c2 G2 A2 G2 ^F8 | G4 c2 c2 B2 A2 G4- | G2 G2 d2 B2 e2 dc d2 d2 | %16
 A8 F2 G2 A2 B2 | c4 F4 C2 D2 E2 F2 | G4 c2 G4 A2 B2 c2 | d4 G4 D2 E2 ^F2 F2 | G2 A2 B4 A8 | %21
 z4 A2 B2 c4 A4 | G8 B4 A4- | A2 G2 ^F4 F4 z2 A2 | G2 F2 E4 E2 E2 F3 G | A2 G2 ^F4 F6 F2 | %26
 G2 A2 B6 B2 c4 | G4 A4 G8- | G8 ^F8- | F4 G4 G8 | G12 G4 | c2 c2 c2 c2 e8 | c4 e6 d2 d4- | %33
 d4 ^c4 d4 A2 A2 | AG^FEFG A2 D4 A2 A2 | AG^FEFG A2 B4 B4- | B2 c2 B2 c2 B2 c2 d4 | %37
 B2 G4 ^F2 GGFG G4 | A2 B2 c2 G4 A2 G2 A2 | G2 FE D4 D2 d4 ^c2 | dcBc d2 G2 A4 D4- | D4 D4 D4 d4- | %42
 d4 B4 A8 | B16 |] %44
V:2
 z4 d4 B4 z2 d2- | d2 B4 GABc d2 G4 | z8 d2 B2 c2 A2 | B2 G2 ABcA d4 c4 | B2 B2 A6 G4 ^F2 | %5
 G8 z2 d2 B2 G2 | dcBA G4 D4 z2 d2 | c2 A2 edcB A3 B c4 | B6 B2 G2 B2 c4 | B4 G4 G4 G4 | A8 G6 G2 | %11
 c4 G4 A2 G2 F4 | z4 E4 F2 E2 D2 CD | E2 DE F2 E2 D2 A2 d2 A2 | c2 d2 e4 z4 B4 | %15
 c3 c B2 G2 c2 A2 B2 B2 | c4 F2 G2 A2 B2 c4 | F4 C2 D2 E2 F2 G2 A2 | E2 F2 G4 C4 G2 A2 | %19
 B2 c2 d4 G4 z4 | d6 e2 f4 d4 | c4 d4 G4 c4- | c4 c4 d6 d2 | d2 B2 A2 A2 d2 A3 Bcd | %24
 e2 d2 ^c8 d2 A2 | d2 B2 A4 A8 | z16 | z4 c4 (B8 | e8) A8- | A4 c4 B8 | c4 G4 c2 c2 c2 c2 | %31
 e8 c4 c4 | G2 G2 c2 c2 c4 A4 | A2 A2 E4 F2 A2 AG^FE | ^FG A2 D4 F2 A2 AGFE | ^FG A4 D4 d4 e2 | %36
 d2 e2 d2 e2 d2 cB A4 | G2 B4 A2 B2 A2 B2 c2 | d4 G4 z4 c4 | c4 B4 A2 A4 G2 | %40
 F2 G2 A2 B2 c4 B2 B2 | A2 G2 ^F2 G2 A2 B2 AGFE | ^F4 G8 F4 | G16 |] %44
V:3
 z8 d4 B4 | z2 d4 B4 GABc d2 | G4 A2 ^F2 G4 z4 | d2 B2 c2 A2 B2 G2 ABcA | d4 c4 B4 A4 | %5
 B8 z4 z2 d2 | B2 G2 dcBA G4 D4 | A2 c2 A2 edcB A4 GF | G4 G2 G2 D2 G2 G4- | G4 D4 E4 D3 E | %10
 ^F2 G2 F4 G4 d4 | e4 d4 A2 B2 c4 | G4 c2 G2 A2 G2 F4 | G4 c4 A2 D4 D2 | E2 F2 G4 D4 G2 D2 | %15
 E2 E2 D4 C4 G2 D2 | F2 F2 C4 z4 F2 G2 | A2 B2 c2 BA G4 C4 | C2 D2 E3 F G4 D4 | G2 A2 B2 c2 d4 A4 | %20
 z4 D6 E2 F2 G2 | A4 F4 E4 F4- | F4 E4 G4 C3 E | ^F2 G2 D8 E4 | z8 z2 A2 D3 E | ^F2 G2 D4 D6 D2 | %26
 D6 D2 D2 D2 E4- | E4 F4 D4 D4- | D2 ^CB, C4 D8- | D4 E4 D8 | E8 E4 E2 E2 | G2 G2 G8 G4 | %32
 E3 F G8 F4 | E4 A2 A2 AG^FEFG A2 | D4 A2 A2 AG^FEFG A2 | D2 D3 E ^F2 G8 | z4 G4 G4 ^F4 | %37
 G2 D4 C2 D2 C2 D2 E2 | F4 E2 E4 F2 E2 F2 | E2 F2 G4 ^F2 F4 G2 | A2 G2 F2 E4 ^F2 G4 | %41
 ^F2 G2 A2 G2 F2 G2 F3 G | A4 D4 D8- | D16 |] %44
V:4
 z16 | z16 | z16 | z16 | z16 | z8 G8 | G8 G8 | z16 | G6 G2 B2 G2 c4 | G6 G2 E4 G4 | D8 G8 | z16 | %12
 z4 C4 F8 | C8 D4 D4 | C8 G8 | c4 G4 A4 G4 | F8 z8 | F2 G2 A2 B2 c8 | C4 C3 D E2 F2 G4 | %19
 G4 G2 A2 B2 c2 d4 | G8 D6 E2 | F4 D4 C8- | C8 z8 | z8 z2 d2 A3 B | c2 d2 A4 A4 z4 | z8 z4 D4 | %26
 G6 G2 G2 G2 c4- | c4 F4 G8 | E8 D8- | D4 C4 G8 | C12 c4 | c4 c4 c4 c4 | c4 c4 A8- | A4 A4 D8 | %34
 D12 D4 | D8 G8 | G8 G4 D4 | G4 G2 A2 G2 A2 G2 FE | D4 C4 C8 | C4 G4 D4 d2 e2 | d2 e2 d2 cB A4 G4 | %41
 D8 D8 | D16 | G16 |] %44

